dist/icons/Subtract.svg

<svg width="30" height="30" viewBox="0 0 30 30" fill="none" xmlns="http://www.w3.org/2000/svg">
<path opacity="0.6" d="M26.875 20H3.125C2.43464 20 1.875 20.5596 1.875 21.25V26.875C1.875 27.5654 2.43464 28.125 3.125 28.125H26.875C27.5654 28.125 28.125 27.5654 28.125 26.875V21.25C28.125 20.5596 27.5654 20 26.875 20Z" fill="white"/>
<path d="M20 6.875C19.6545 6.875 19.375 6.59516 19.375 6.25V3.125H10.625V6.25C10.625 6.59516 10.3455 6.875 10 6.875C9.65454 6.875 9.375 6.59516 9.375 6.25V2.5C9.375 2.15484 9.65454 1.875 10 1.875H20C20.3455 1.875 20.625 2.15484 20.625 2.5V6.25C20.625 6.59516 20.3455 6.875 20 6.875Z" fill="white"/>
<path fill-rule="evenodd" clip-rule="evenodd" d="M1.875 5.625H28.125C28.8154 5.625 29.375 6.18464 29.375 6.875V20C29.375 20.6904 28.8154 21.25 28.125 21.25H1.875C1.18464 21.25 0.625 20.6904 0.625 20V6.875C0.625 6.18464 1.18464 5.625 1.875 5.625ZM14.0986 16.2637C13.5463 16.2637 13.0986 16.7114 13.0986 17.2637C13.0986 17.816 13.5463 18.2637 14.0986 18.2637H16.0986C16.6509 18.2637 17.0986 17.816 17.0986 17.2637C17.0986 16.7114 16.6509 16.2637 16.0986 16.2637H14.0986Z" fill="white"/>
</svg>

<svg width="30" height="30" fill="none" xmlns="http://www.w3.org/2000/svg"><path opacity=".6" d="M26.875 20H3.125c-.69 0-1.25.56-1.25 1.25v5.625c0 .69.56 1.25 1.25 1.25h23.75c.69 0 1.25-.56 1.25-1.25V21.25c0-.69-.56-1.25-1.25-1.25Z" fill="#fff"/><path d="M20 6.875a.625.625 0 0 1-.625-.625V3.125h-8.75V6.25a.625.625 0 1 1-1.25 0V2.5c0-.345.28-.625.625-.625h10c.346 0 .625.28.625.625v3.75c0 .345-.28.625-.625.625Z" fill="#fff"/><path fill-rule="evenodd" clip-rule="evenodd" d="M1.875 5.625h26.25c.69 0 1.25.56 1.25 1.25V20c0 .69-.56 1.25-1.25 1.25H1.875c-.69 0-1.25-.56-1.25-1.25V6.875c0-.69.56-1.25 1.25-1.25Zm12.224 10.639a1 1 0 1 0 0 2h2a1 1 0 1 0 0-2h-2Z" fill="#fff"/></svg>
